X: 12277
T: Fairy Dance, The
R: reel
M: 4/4
K: Dmajor
a2aa fdfa|fdfa age2|a2aa fdfa|1 agec defg:|2 agec dcde||
f2f2 dBB2|g2gg eccc|a2aa fdfa|1 agec dcde:|2 agec d4||

